flaticon/stationery/pen-4.svg

<svg xmlns="http://www.w3.org/2000/svg" width="32" height="32" viewBox="0 0 24 24">
    <path d="M 23.851562 4.769531 L 19.230469 0.148438 C 19.03125 -0.0507812 18.707031 -0.0507812 18.507812 0.148438 L 1.949219 16.707031 C 1.894531 16.761719 1.855469 16.824219 1.832031 16.890625 C 1.832031 16.886719 1.832031 16.886719 1.832031 16.886719 L 0.414062 20.445312 C 0.339844 20.636719 0.382812 20.851562 0.527344 20.996094 L 1.40625 21.871094 L 0.148438 23.128906 C -0.0507812 23.328125 -0.0507812 23.652344 0.148438 23.851562 C 0.347656 24.050781 0.671875 24.050781 0.871094 23.851562 L 2.125 22.59375 L 3.003906 23.472656 C 3.101562 23.570312 3.300781 23.683594 3.554688 23.585938 L 7.117188 22.167969 C 7.179688 22.140625 7.238281 22.105469 7.292969 22.050781 L 23.851562 5.492188 C 24.050781 5.292969 24.050781 4.96875 23.851562 4.769531 Z M 21.226562 3.589844 L 15.949219 8.867188 L 15.132812 8.050781 L 20.410156 2.773438 Z M 18.867188 1.234375 L 19.6875 2.050781 L 14.410156 7.328125 L 13.589844 6.511719 Z M 3.488281 22.511719 L 1.488281 20.511719 L 2.496094 17.980469 L 6.019531 21.503906 Z M 6.929688 20.96875 L 3.03125 17.070312 L 12.867188 7.230469 L 16.769531 11.132812 Z M 17.488281 10.410156 L 16.671875 9.589844 L 21.949219 4.3125 L 22.765625 5.132812 Z M 17.488281 10.410156"/>
</svg>

<svg xmlns="http://www.w3.org/2000/svg" width="32" height="32" viewBox="0 0 24 24">
    <path d="M23.852 4.77L19.23.148c-.199-.199-.523-.199-.722 0L1.949 16.707a.49.49 0 0 0-.117.184v-.004L.414 20.445a.513.513 0 0 0 .113.551l.88.875L.147 23.13a.512.512 0 0 0 .723.723l1.254-1.258.879.879c.098.097.297.21.55.113l3.563-1.418a.554.554 0 0 0 .176-.117L23.852 5.492c.199-.199.199-.523 0-.722zm-2.625-1.18l-5.278 5.277-.816-.816 5.277-5.278zm-2.36-2.356l.82.817-5.277 5.277-.82-.816zM3.488 22.512l-2-2 1.008-2.532 3.524 3.524zm3.442-1.543L3.03 17.07l9.836-9.84 3.903 3.903zM17.488 10.41l-.816-.82 5.277-5.277.817.82zm0 0"/>
</svg>
